X: 2436
T: Ballinamore, The
R: reel
M: 4/4
K: Eminor
G2BG E2AG|FDFA dAFD|G2BG E2Ac|BGAF GEEF|
G2BG E2AG|FDFA dAFD|G2BG E2Ac|BGAF GEE2||
eB~B2 efge|f2af bgaf|eB~B2 efge|fedf efgf|
eB~B2 efge|f2af bgaf|eB~B2 dBAB|d3e fdAF||

